<?xml version="1.0" encoding="UTF-8"?>
<map version="1.10" tiledversion="1.11.2" orientation="orthogonal" renderorder="right-down" width="57" height="48" tilewidth="64" tileheight="64" infinite="0" nextlayerid="6" nextobjectid="447">
 <tileset firstgid="1" source="../tilesets/world_tileset_forest.tsx"/>
 <tileset firstgid="211" source="../tilesets/Objects.tsx"/>
 <layer id="1" name="Ground" width="57" height="48">
  <data encoding="csv">
132,132,132,132,132,132,132,132,132,132,132,132,132,132,132,132,132,132,132,132,132,132,132,132,132,132,132,132,132,132,132,132,132,132,132,132,132,132,132,132,132,132,132,132,132,132,132,132,132,132,132,132,132,132,132,132,132,
132,132,132,132,132,132,132,132,132,132,132,132,132,132,132,132,132,132,132,132,132,132,132,132,132,132,132,132,132,132,132,132,132,132,132,132,132,132,132,132,132,132,132,132,132,132,132,132,132,132,132,132,132,132,132,132,132,
132,132,132,132,132,132,132,132,132,132,132,132,132,132,132,132,132,132,132,132,132,132,132,132,132,132,132,132,132,132,132,132,132,132,132,132,132,132,132,132,132,132,132,132,132,132,132,132,132,132,132,132,132,132,132,132,132,
132,132,132,132,132,132,132,132,132,132,132,132,132,132,132,132,132,132,132,132,132,132,132,132,132,132,132,132,132,132,132,132,132,132,132,132,132,132,132,132,132,132,132,132,132,132,132,132,132,132,132,132,132,132,132,132,132,
132,132,132,132,132,132,132,132,132,132,132,132,132,132,132,132,132,132,132,132,132,132,132,132,132,132,132,132,132,132,132,132,132,132,132,132,132,132,132,132,132,132,132,132,132,132,132,132,132,132,132,132,132,132,132,132,143,
132,132,132,132,132,132,132,132,132,132,132,132,132,132,132,132,132,132,132,132,132,132,132,132,132,132,132,132,132,132,132,132,132,132,132,132,132,132,132,132,132,132,132,132,132,132,132,132,132,132,132,132,132,132,132,143,192,
132,132,132,132,132,132,132,132,132,132,132,127,129,132,132,132,127,145,145,145,145,145,129,132,132,132,132,132,132,132,132,132,132,132,132,132,132,132,132,132,132,132,132,132,132,132,132,132,132,132,132,132,132,132,143,192,192,
132,132,132,132,132,132,132,132,132,132,132,136,144,145,145,145,146,162,162,162,162,162,144,145,145,129,132,132,132,132,132,132,132,132,132,132,132,132,132,132,132,132,132,132,132,132,132,132,132,132,132,132,132,143,42,192,192,
132,132,132,132,132,132,132,132,132,132,132,136,162,162,162,162,162,162,162,162,162,162,162,162,162,144,145,145,129,132,127,145,145,145,145,145,145,145,145,145,145,145,145,129,132,132,132,132,132,132,132,132,132,42,42,192,192,
132,132,132,132,132,132,132,132,132,132,132,136,162,162,162,162,162,162,162,162,162,162,162,162,162,162,162,162,144,145,146,162,162,162,162,162,162,162,162,162,162,162,135,136,132,132,132,132,132,132,132,132,143,42,42,192,192,
132,132,132,132,132,132,132,132,132,132,132,136,162,162,162,162,162,162,162,162,162,162,162,162,162,162,162,162,162,162,162,162,162,162,162,162,162,162,162,162,162,162,162,136,132,132,132,132,132,142,142,143,42,42,42,192,192,
132,132,132,132,132,132,132,132,132,132,132,136,162,162,162,162,162,162,162,162,162,162,162,162,162,162,162,162,162,162,162,162,162,162,162,162,162,162,162,162,162,162,162,144,129,132,132,142,143,192,42,42,42,42,42,192,192,
132,132,132,132,132,132,132,132,132,132,132,136,162,162,162,162,162,162,162,162,162,162,162,124,125,126,162,162,162,162,162,162,162,162,162,162,162,162,162,162,162,162,162,162,134,142,143,42,42,42,42,42,42,42,42,192,192,
132,132,132,132,132,132,132,132,132,132,132,144,129,162,162,162,162,162,162,162,162,162,162,134,135,136,162,162,162,162,142,142,142,142,162,162,162,162,162,162,162,162,142,143,16,42,42,42,42,42,42,42,42,42,42,192,192,
132,132,132,132,132,132,132,132,132,132,132,132,136,162,162,162,162,162,162,162,162,162,162,144,145,146,162,162,162,133,192,192,192,192,141,162,162,162,162,162,162,143,42,42,24,9,42,42,42,42,42,42,42,42,42,192,192,
132,132,132,132,132,132,132,132,132,132,132,132,136,162,162,162,162,162,162,162,162,162,162,162,162,162,162,162,181,143,192,192,192,192,192,141,142,142,142,143,42,42,42,42,42,19,42,42,42,42,42,42,42,42,42,192,192,
132,132,132,132,132,132,132,132,132,132,132,132,136,162,162,162,162,162,162,162,162,162,162,162,162,162,162,162,191,192,192,192,192,192,42,42,42,42,42,42,42,42,42,42,42,19,42,42,42,42,42,42,42,42,42,192,192,
132,132,132,132,132,132,132,132,132,132,132,132,136,162,162,162,162,162,162,162,162,162,162,162,162,162,162,162,191,192,192,192,42,42,42,42,42,1,2,3,42,42,42,42,42,16,42,42,42,42,42,42,42,42,42,192,192,
132,132,132,132,132,132,132,132,132,132,132,132,136,162,162,162,162,162,162,162,162,162,162,162,162,162,162,162,191,192,42,42,42,42,42,42,42,21,63,81,82,82,3,42,4,29,42,42,42,42,42,42,42,42,42,192,192,
132,132,132,132,132,132,132,132,132,132,132,127,146,162,162,162,162,162,162,162,162,162,162,162,162,162,162,142,143,192,192,42,42,42,42,42,42,42,21,63,12,12,13,42,14,42,42,42,42,42,42,42,42,42,42,192,192,
132,132,132,132,132,132,132,132,132,132,132,136,162,162,162,162,124,177,177,177,126,162,162,162,132,142,143,42,42,42,42,42,42,42,42,42,34,35,36,21,63,12,13,42,14,42,42,42,42,42,42,42,42,42,42,192,192,
182,182,182,142,142,142,142,142,132,132,132,136,162,162,142,142,134,142,142,142,136,142,142,142,143,42,42,42,42,42,42,42,42,42,42,42,44,45,46,42,11,12,13,42,24,25,25,25,25,25,25,25,25,25,25,25,25,
192,192,192,42,42,42,42,42,192,141,132,136,142,143,15,15,14,15,42,42,16,42,42,42,4,5,6,42,42,42,42,42,42,42,42,42,54,55,56,42,11,12,13,42,42,42,42,42,42,42,42,42,42,42,42,192,192,
192,192,192,42,42,42,42,42,42,42,42,16,42,42,15,15,14,15,15,42,16,42,42,42,14,15,16,42,42,42,15,42,42,42,42,42,42,42,42,42,11,12,13,42,42,1,2,2,2,2,2,2,2,2,2,82,82,
192,192,192,42,42,42,42,42,42,42,42,16,42,42,42,42,14,42,42,42,16,42,42,42,24,25,26,42,42,42,42,42,42,42,42,42,42,42,42,42,11,12,81,3,42,11,102,12,12,12,12,12,12,12,12,105,105,
192,192,192,42,42,42,42,42,42,42,42,16,42,42,42,42,24,58,58,58,26,42,42,42,42,42,42,42,42,42,42,42,42,42,42,42,42,42,42,1,83,12,12,81,82,83,102,12,12,12,12,12,12,12,12,105,105,
192,192,192,42,42,42,42,42,42,42,42,16,42,42,42,42,42,42,73,12,81,82,3,42,42,42,42,42,42,42,42,42,42,42,42,42,42,42,1,12,12,12,12,12,12,94,95,95,95,95,95,95,95,112,112,95,95,
192,192,192,42,42,42,42,42,42,42,42,16,42,42,42,42,42,42,73,12,12,12,12,3,42,42,42,42,42,42,42,42,42,42,42,42,42,42,73,12,12,12,12,12,12,103,12,12,12,12,12,12,12,12,12,105,105,
192,192,192,42,42,42,42,42,42,42,42,16,42,42,42,42,42,42,21,63,12,12,12,13,42,42,42,42,42,42,42,42,42,42,42,42,42,4,65,66,12,12,12,12,75,103,12,12,12,12,12,12,12,12,12,105,105,
192,192,192,42,42,42,42,42,42,42,42,16,42,42,42,34,35,36,42,73,12,12,12,81,3,42,42,42,42,42,42,42,42,42,42,1,2,14,75,76,75,75,75,75,75,103,12,12,12,12,12,12,12,12,12,105,105,
192,192,192,42,42,42,42,42,42,42,42,16,42,42,42,44,45,46,42,73,12,12,12,12,81,2,2,3,42,42,42,1,2,2,2,75,75,84,85,86,12,12,12,12,12,103,12,12,12,12,12,12,12,12,12,105,105,
192,192,192,42,42,42,42,42,42,42,42,16,42,42,42,54,55,56,42,73,12,12,12,12,12,12,12,75,82,82,82,75,75,75,75,75,12,12,12,12,12,12,12,12,12,103,12,12,12,12,12,12,12,12,12,105,105,
192,192,192,42,42,42,42,42,42,42,42,16,42,42,42,42,42,42,1,83,75,75,75,75,75,75,75,75,75,12,12,12,12,12,12,12,12,12,12,102,12,12,12,12,12,103,12,12,12,12,12,12,12,12,12,105,105,
192,192,192,42,42,42,42,42,42,42,42,16,42,42,42,42,42,42,73,75,75,12,12,12,12,12,12,12,91,92,93,12,12,12,12,12,12,12,102,102,12,12,12,12,12,103,12,102,12,12,12,12,12,12,12,105,105,
192,192,192,42,42,42,42,42,42,42,7,26,42,42,42,42,42,1,83,12,12,12,12,12,12,12,12,12,101,102,103,12,12,12,12,12,102,102,102,12,12,12,12,12,12,103,12,102,12,12,12,12,12,12,12,105,105,
25,25,85,25,25,25,25,25,25,25,26,42,42,1,2,2,2,83,12,12,12,12,12,12,12,12,12,12,111,112,113,12,12,102,102,102,102,12,12,12,12,12,12,94,95,113,102,102,12,12,12,12,12,12,12,105,105,
82,82,82,2,2,2,2,2,2,2,2,2,2,83,12,12,12,12,12,12,12,12,12,12,12,12,12,12,12,102,102,102,102,102,12,12,12,12,12,12,12,94,95,113,12,12,12,12,12,12,12,12,12,12,12,105,105,
95,95,95,95,95,95,95,95,95,95,95,96,12,12,12,12,12,12,12,12,12,12,12,12,12,102,102,102,102,102,12,12,12,12,12,12,12,12,12,94,95,113,12,12,12,12,12,12,12,12,12,12,12,12,12,105,105,
105,105,105,12,12,12,12,12,12,12,12,101,12,12,12,12,12,12,12,12,12,12,12,12,12,12,12,12,12,12,12,12,12,12,12,94,95,95,95,113,12,12,12,12,12,12,12,12,12,12,12,12,12,12,12,105,105,
105,105,105,12,12,12,12,12,12,12,12,111,96,12,12,12,12,12,12,12,12,12,12,12,12,12,12,12,12,12,12,12,94,112,112,113,12,12,12,12,12,12,12,12,12,12,12,12,12,12,12,12,12,12,12,105,105,
105,105,105,12,12,12,12,12,12,12,12,12,111,95,95,95,95,95,95,95,95,95,95,95,95,95,95,95,95,95,95,95,113,12,12,12,12,12,12,12,12,12,12,12,12,12,12,12,12,12,12,12,12,12,12,105,105,
105,105,105,12,12,12,12,12,12,12,12,12,12,12,102,102,102,102,102,102,102,102,102,102,102,102,102,102,12,12,12,12,12,12,12,12,12,12,12,12,12,12,12,12,12,12,12,12,12,12,12,12,12,12,12,105,105,
105,105,105,12,12,12,12,12,12,12,12,12,12,12,12,12,12,12,102,102,102,102,102,12,12,12,12,12,12,12,12,12,12,12,12,12,12,12,12,12,12,12,12,12,12,12,12,12,12,12,12,12,12,12,12,105,105,
105,105,105,12,12,12,12,12,12,12,12,12,12,12,12,12,12,12,12,12,12,12,12,12,12,12,12,12,12,12,12,12,12,12,12,12,12,12,12,12,12,12,12,12,12,12,12,12,12,12,12,12,12,12,12,105,105,
105,105,105,12,12,12,12,12,12,12,12,12,12,12,12,12,12,12,12,12,12,12,12,12,12,12,12,12,12,12,12,12,12,12,12,12,12,12,12,12,12,12,12,12,12,12,12,12,12,12,12,12,12,12,12,105,105,
105,105,105,12,12,12,12,12,12,12,12,12,12,12,12,12,12,12,12,12,12,12,12,12,12,12,12,12,12,12,12,12,12,12,12,12,12,12,12,12,12,12,12,12,12,12,12,12,12,12,12,12,12,12,12,105,105,
105,105,105,12,12,12,12,12,12,12,12,12,12,12,12,12,12,12,12,12,12,12,12,12,12,12,12,12,12,12,12,12,12,12,12,12,12,12,12,12,12,12,12,12,12,12,12,12,12,12,12,12,12,12,12,105,105,
105,105,105,12,12,12,12,12,12,12,12,12,12,12,12,12,12,12,12,12,12,12,12,12,12,12,12,12,12,12,12,12,12,12,12,12,12,12,12,12,12,12,12,12,12,12,12,12,12,12,12,12,12,12,12,105,105
</data>
 </layer>
 <objectgroup id="2" name="Collisions" visible="0">
  <object id="80" x="776" y="2561.33" width="1341.33" height="124"/>
  <object id="81" x="2090.67" y="2509.33" width="224" height="90.6667"/>
  <object id="82" x="2273.33" y="2469.33" width="292" height="81.3333"/>
  <object id="83" x="2522.67" y="2389.33" width="174.667" height="102.667"/>
  <object id="84" x="2664" y="2325.33" width="156" height="98.6667"/>
  <object id="85" x="2785.33" y="2274.67" width="188" height="98.6667"/>
  <object id="86" x="2901.33" y="1700" width="489.333" height="613.333"/>
  <object id="87" x="185.333" y="2408" width="596" height="240"/>
  <object id="88" x="2818.67" y="1141.33" width="678.667" height="276"/>
  <object id="89" x="2868" y="896" width="178.667" height="357.333"/>
  <object id="90" x="2818.67" y="697.33" width="174.667" height="241.333"/>
  <object id="91" x="2750.67" y="552" width="134.667" height="213.333"/>
  <object id="92" x="1846.67" y="476" width="1050.67" height="110.667"/>
  <object id="93" x="2696" y="566.67" width="113.333" height="64"/>
  <object id="94" x="1778.67" y="486.67" width="210.667" height="158.667"/>
  <object id="95" x="1604" y="436" width="234.667" height="138.667"/>
  <object id="96" x="1409.33" y="369.33" width="305.333" height="150.667"/>
  <object id="97" x="1025.33" y="338.67" width="538.667" height="110.667"/>
  <object id="98" x="625.33" y="337.33" width="486.667" height="161.333"/>
  <object id="99" x="528" y="352" width="242.667" height="529.333"/>
  <object id="100" x="713.33" y="793.33" width="118.667" height="506.667"/>
  <object id="101" x="572" y="1210.67" width="185.333" height="1076"/>
  <object id="331" x="1024.5" y="1280.5" width="62.5" height="383"/>
  <object id="332" x="1281" y="1280" width="63" height="383.5"/>
  <object id="333" x="1551.5" y="1420.5" width="163.5" height="165.5"/>
  <object id="335" x="1808" y="2132" width="158" height="158"/>
  <object id="336" x="1483" y="778" width="170" height="170"/>
  <object id="337" x="2348" y="1322" width="104" height="116"/>
  <object id="338" x="2370" y="1792" width="188" height="186"/>
 </objectgroup>
 <objectgroup id="4" name="Entities" visible="0">
  <object id="429" name="Player" x="1868" y="1524">
   <point/>
  </object>
  <object id="430" name="Enemy" x="2530" y="1546">
   <point/>
  </object>
  <object id="431" name="Enemy" x="2118" y="2122">
   <point/>
  </object>
  <object id="432" name="Enemy" x="1492" y="2204">
   <point/>
  </object>
  <object id="433" name="Enemy" x="1188" y="1504">
   <point/>
  </object>
  <object id="434" name="Enemy" x="1018" y="2372">
   <point/>
  </object>
  <object id="435" name="Enemy" x="1032" y="712">
   <point/>
  </object>
  <object id="436" name="Enemy" x="2600" y="892">
   <point/>
  </object>
  <object id="437" name="Enemy" x="2250" y="766">
   <point/>
  </object>
  <object id="438" name="Enemy" x="1830" y="920">
   <point/>
  </object>
  <object id="439" name="Enemy" x="2442" y="1136">
   <point/>
  </object>
  <object id="440" name="Enemy" x="1350" y="722">
   <point/>
  </object>
  <object id="441" name="Enemy" x="1850" y="2470">
   <point/>
  </object>
  <object id="442" name="Enemy" x="1364" y="1940">
   <point/>
  </object>
  <object id="443" name="Enemy" x="2728" y="2006">
   <point/>
  </object>
  <object id="444" name="Boss" x="1908" y="1482">
   <point/>
  </object>
 </objectgroup>
 <objectgroup id="3" name="Objects">
  <object id="10" gid="222" x="2901.33" y="1597.33" width="128" height="192"/>
  <object id="11" gid="223" x="625.33" y="2396" width="128" height="192"/>
  <object id="13" gid="220" x="2910" y="1638" width="60" height="60"/>
  <object id="14" gid="220" x="3014" y="1530" width="60" height="60"/>
  <object id="27" gid="214" x="745.33" y="2065.33" width="128" height="192"/>
  <object id="32" gid="212" x="2793.33" y="1436.67" width="56" height="60"/>
  <object id="33" gid="212" x="2729.33" y="791.33" width="56" height="60"/>
  <object id="103" gid="222" x="1930.79" y="2742.2" width="128" height="192"/>
  <object id="106" gid="224" x="2213.71" y="2641.46" width="64" height="128"/>
  <object id="108" gid="224" x="2975.04" y="1783.89" width="64" height="128"/>
  <object id="119" gid="220" x="2946.1" y="1665.68" width="60" height="60"/>
  <object id="120" gid="221" x="1999.45" y="2763.85" width="56" height="60"/>
  <object id="121" gid="221" x="743.16" y="2451.07" width="56" height="60"/>
  <object id="122" gid="213" x="555.93" y="2140.7" width="128" height="192"/>
  <object id="123" gid="213" x="464.84" y="2056.49" width="128" height="192"/>
  <object id="124" gid="214" x="471.72" y="1604.5" width="128" height="192"/>
  <object id="133" gid="214" x="2986" y="1231.57" width="128" height="192"/>
  <object id="135" gid="215" x="3085.03" y="1249.41" width="64" height="128"/>
  <object id="173" gid="214" x="2764" y="1129.33" width="128" height="192"/>
  <object id="294" gid="216" x="1064" y="1020" width="128" height="192"/>
  <object id="296" gid="216" x="2328" y="970.67" width="128" height="192"/>
  <object id="297" gid="216" x="804" y="586.67" width="128" height="192"/>
  <object id="298" gid="216" x="1109.33" y="570.67" width="128" height="192"/>
  <object id="299" gid="216" x="1682.67" y="644" width="128" height="192"/>
  <object id="300" gid="216" x="2632" y="649.33" width="128" height="192"/>
  <object id="302" gid="216" x="748.67" y="1360.67" width="128" height="192"/>
  <object id="304" gid="216" x="756" y="836" width="128" height="192"/>
  <object id="305" gid="216" x="1448" y="1284" width="128" height="192"/>
  <object id="306" gid="213" x="1986.67" y="974.67" width="128" height="192"/>
  <object id="309" gid="211" x="1538" y="895.33" width="60" height="60"/>
  <object id="310" gid="211" x="1684.67" y="1154" width="60" height="60"/>
  <object id="311" gid="214" x="2061.33" y="1344.67" width="128" height="192"/>
  <object id="313" gid="215" x="2832" y="1476" width="64" height="128"/>
  <object id="314" gid="214" x="2025.33" y="1805.33" width="128" height="192"/>
  <object id="315" gid="214" x="1733.33" y="1932" width="128" height="192"/>
  <object id="316" gid="217" x="2598.67" y="1310.67" width="64" height="192"/>
  <object id="319" gid="214" x="992" y="1986" width="128" height="192"/>
  <object id="320" gid="222" x="1297" y="2250" width="128" height="192"/>
  <object id="321" gid="223" x="1571" y="2251.5" width="128" height="192"/>
  <object id="322" gid="224" x="2856" y="2284" width="64" height="128"/>
  <object id="325" gid="224" x="764" y="2581.33" width="64" height="128"/>
  <object id="326" gid="224" x="2638" y="1671.33" width="64" height="128"/>
  <object id="327" gid="224" x="2433.33" y="1926.67" width="64" height="128"/>
  <object id="328" gid="222" x="2261.33" y="2216" width="128" height="192"/>
  <object id="329" gid="215" x="2362.67" y="1730.67" width="64" height="128"/>
  <object id="330" gid="218" x="2556" y="2202.67" width="64" height="104"/>
  <object id="339" gid="216" x="2072" y="376" width="128" height="192"/>
  <object id="340" gid="216" x="2688" y="316" width="128" height="192"/>
  <object id="341" gid="216" x="3060" y="584" width="128" height="192"/>
  <object id="343" gid="216" x="2356" y="424" width="128" height="192"/>
  <object id="344" gid="216" x="1680" y="320" width="128" height="192"/>
  <object id="345" gid="216" x="1128" y="188" width="128" height="192"/>
  <object id="346" gid="216" x="600" y="244" width="128" height="192"/>
  <object id="347" gid="216" x="456" y="712" width="128" height="192"/>
  <object id="348" gid="216" x="532" y="1064" width="128" height="192"/>
  <object id="355" gid="216" x="2320" y="220" width="128" height="192"/>
  <object id="361" gid="215" x="2842.42" y="467.27" width="64" height="128"/>
  <object id="362" gid="215" x="3015.15" y="846.06" width="64" height="128"/>
  <object id="363" gid="215" x="3218.18" y="1012.73" width="64" height="128"/>
  <object id="364" gid="215" x="318.18" y="1527.88" width="64" height="128"/>
  <object id="366" gid="215" x="330.3" y="2130.91" width="64" height="128"/>
  <object id="370" gid="213" x="307.39" y="1799.27" width="128" height="192"/>
  <object id="372" gid="213" x="3174.06" y="829.58" width="128" height="192"/>
  <object id="376" gid="222" x="3052.85" y="1978.06" width="128" height="192"/>
  <object id="377" gid="222" x="3019.52" y="2259.88" width="128" height="192"/>
  <object id="378" gid="222" x="3213.45" y="1693.21" width="128" height="192"/>
  <object id="385" gid="223" x="798.3" y="2859.88" width="128" height="192"/>
  <object id="388" gid="223" x="2295.27" y="2702.3" width="128" height="192"/>
  <object id="389" gid="223" x="1831.64" y="2899.27" width="128" height="192"/>
  <object id="390" gid="224" x="1572.73" y="2912.73" width="64" height="128"/>
  <object id="391" gid="224" x="1218.18" y="2852.12" width="64" height="128"/>
  <object id="393" gid="224" x="2654.55" y="2594.55" width="64" height="128"/>
  <object id="428" gid="222" x="1206" y="2660" width="128" height="192"/>
 </objectgroup>
</map>
